**kern	**silbe
*ICvox	*
=1	=1
*E:	*
*M4/4	*
*clefF4	*
1r	.
=2	=2
1r	.
=3	=3
1r	.
=4	=4
1r	.
=5	=5
1r	.
=6	=6
2.r	.
4E	Well
=7	=7
4G#	where
4B	oh
4c#	where
8E	can
[8E	my
=8	=8
8E]	_
4G#	ba-
8B	-by
4c#	be
4r	.
=9	=9
8r	.
8E	The
4E	Lord
8E	took
4C#	her
8E	a-
=10	=10
4F#	-way
8G#	from
4.F#	me
4r	.
=11	=11
8r	.
8E	She's
8G#	gone
8B	to
8c#	hea-
8c#	-ven
8E	So
8E	I
=12	=12
8G#	got
8G#	to
8B	be
4c#	good
4r	.
8G#	So
=13	=13
8F#	I
8E	can
8E	see
8E	my
8E	ba-
8E	-by
8E	when
8E	I
=14	=14
8G#	leave
2F#	_
8E	uh
4E	this
=15	=15
2.E	world
4r	.
=16	=16
2.r	.
8E	We
8E	were
=17	=17
4G#	out
8B	on
8B	a
4c#	date
8E	in
[8E	my
=18	=18
8E]	_
4G#	Da-
8B	-ddy's
4c#	car
4r	.
=19	=19
8r	.
8E	We
8E	ha-
8E	-dn't
8E	dri-
4.E	-ven
=20	=20
4F#	ve-
8G#	-ry
4.F#	far
4r	.
=21	=21
8G#	There
8B	in
8B	the
4.c#	road
4r	.
=22	=22
4G#	straight
8B	a-
4.c#	-head
4r	.
=23	=23
8r	.
8E	The
8E	car
8E	was
4.E	stalled
8E	the
=24	=24
8F#	en-
8F#	-gine
8G#	was
4.F#	dead
4r	.
=25	=25
8G#	I
8B	coul-
8B	-dn't
4c#	stop
8r	.
8E	so
8E	I
=26	=26
8G#	swerved
8B	to
8B	the
4c#	right
4.r	.
=27	=27
8E	Ne-
8E	-ver
8E	for-
4E	-get
4r	.
8E	the
=28	=28
4F#	sound
8G#	that
4.F#	night
8r	.
8E	The
=29	=29
4G#	cry-
8B	-in'
2c#	tires
8E	the
=30	=30
8G#	bus-
4B	-tin'
4.c#	glass
8r	.
8E	The
=31	=31
4E	pain-
8E	-ful
2E	scream
8E	that
=32	=32
2.F#	I
4D#	heard
=33	=33
2.E	last
4r	.
=34	=34
2.r	.
4E	Well
=35	=35
4G#	where
4B	oh
4B	where
8B	has
[8B	my
=36	=36
8B]	_
4e	ba-
8d#	-by
4.c#	gone
8r	.
=37	=37
8r	.
8e	The
4e	Lord
8e	took
4e	her
8c#	a-
=38	=38
4d#	-way
8c#	from
4.B	me
4r	.
=39	=39
8r	.
8e	She's
8e	gone
8c#	to
8e	hea-
8c#	-ven
8e	so
8c#	I
=40	=40
8e	got
8e	to
8e	be
4.c#	good
8r	.
8G#	So
=41	=41
8F#	I
8E	can
8E	see
8E	my
8E	ba-
8E	-by
8E	when
8E	I
=42	=42
4G#	leave
4.F#	_
8E	uh
4E	this
=43	=43
2.E	world
4r	.
=44	=44
2.r	.
8E	Well
8E	when
=45	=45
4G#	I
8B	woke
8c#	up
8r	.
8E	The
8E	rain
8E	was
=46	=46
4G#	pour-
8B	-in'
4.c#	down
4r	.
=47	=47
4E	There
8E	were
4E	pe-
8E	-ople
8E	stand-
8E	-ing
=48	=48
4F#	all
8G#	a-
4.F#	-round
4r	.
=49	=49
4G#	Some-
8B	-thing
4c#	warm
8E	uh
8E	run-
8E	-ning
=50	=50
4G#	in
8B	my
4.c#	eyes
4r	.
=51	=51
4E	But
8E	I
4E	found
8E	my
8E	ba-
8E	-by
=52	=52
8F#	some-
4F#	-how
8G#	that
4F#	night
8r	.
8E	I
=53	=53
4G#	raised
8B	her
4c#	head
8E	and
8E	when
8E	she
=54	=54
4G#	smiled
8B	and
4c#	said
8r	.
4r	.
=55	=55
4e	Hold
8e	me
4e	dar-
8e	-ling
8e	for
8c#	a
=56	=56
4d#	li-
8c#	-ttle
4.B	while
8r	.
8E	I
=57	=57
4G#	held
8B	her
4c#	close
8E	I
8E	kissed
8E	her
=58	=58
8G#	our
4B	last
4c#	kiss
4r	.
8E	I
=59	=59
4E	found
8E	the
4.E	love
8E	that
8E	I
=60	=60
8F#	knew
8F#	I
8G#	would
4.F#	miss
8r	.
8E	But
=61	=61
4G#	now
8B	she's
4.c#	gone
8E	e-
8E	-ven
=62	=62
8G#	though
8G#	I
8B	hold
8B	her
4c#	tight
8r	.
8G#	I
=63	=63
4F#	lost
8E	my
4.E	love
4G#	my
=64	=64
4.F#	life
8r	.
4r	.
4D#	that
=65	=65
4E	night
4r	.
2r	.
=66	=66
2.r	.
4E	Well
=67	=67
4G#	where
4B	oh
4B	where
8B	can
[8B	my
=68	=68
8B]	_
4e	ba-
8d#	-by
4c#	be
4r	.
=69	=69
8r	.
8e	The
4e	Lord
8e	took
4e	her
8c#	a-
=70	=70
4d#	-way
8c#	from
4.B	me
4r	.
=71	=71
8r	.
8e	She's
8e	gone
8c#	to
8e	hea-
8c#	-ven
8e	so
8c#	I
=72	=72
8e	got
8e	to
8e	be
4c#	good
4r	.
8G#	So
=73	=73
8F#	I
8E	can
8E	see
8E	my
8E	ba-
8E	-by
8E	when
8E	I
=74	=74
8G#	leave
2F#	_
8E	uh
4E	this
=75	=75
2.E	world
4r	.
=76	=76
1r	.
=77	=77
[2e	Hmm
8e]	_
8e	_
8f#	_
8e	_
=78	=78
[2d#	_
8d#]	_
8r	.
4r	.
=79	=79
1e	Hmm
=80	=80
4d#	_
8c#	_
4.B	_
4c#	_
=81	=81
[2e	Hmm
8e]	_
8e	_
8f#	_
8e	_
=82	=82
[2d#	_
8d#]	_
8r	.
4r	.
=83	=83
1r	.
=84	=84
1r	.
*-	*-
!!!ENC: Nathaniel Condit-Schultz